public/static/icons/love-camera.svg

<svg height="24" viewBox="0 0 24 24" width="24" xmlns="http://www.w3.org/2000/svg"><path d="m21 4h-4l-2-3h-6l-2 3h-4a3 3 0 0 0 -3 3v12a3 3 0 0 0 3 3h18a3 3 0 0 0 3-3v-12a3 3 0 0 0 -3-3zm-5.32 9.325-3.674 3.675-3.674-3.669c-.039-.038-.076-.078-.113-.118a2.535 2.535 0 0 1 3.787-3.372c.028-.031.056-.061.086-.091a2.538 2.538 0 0 1 3.588-.009 2.533 2.533 0 0 1 0 3.584z" fill="#283440"/></svg>

<svg xmlns="http://www.w3.org/2000/svg" width="24" height="24" viewBox="0 0 24 24"><g class="nc-icon-wrapper" fill="#283440"><path d="M21,4H17L15,1H9L7,4H3A3,3,0,0,0,0,7V19a3,3,0,0,0,3,3H21a3,3,0,0,0,3-3V7A3,3,0,0,0,21,4Zm-5.32,9.325L12.006,17,8.332,13.331c-.039-.038-.076-.078-.113-.118a2.535,2.535,0,0,1,3.787-3.372c.028-.031.056-.061.086-.091a2.538,2.538,0,0,1,3.588-.009v0A2.533,2.533,0,0,1,15.68,13.325Z" fill="#283440"/></g></svg>
